X: 16069
T: Green Fields Of Pont Cariou, The
R: jig
M: 6/8
K: Bminor
|:~f3 edc|dc ~B3 F|AB/c/d cde|edB cde|
[1 ~f3 edc|dcB gec|fdB GB/c/d|ed c2 de:|
[2 zff edc|dcB gec|~A3 A2G|Fdc dcA||
|:~F3 AFD|~F3 Adc|~B3 dAf|fed cAG|
[1 ~A3 dAd|cBA ABF|~A3 dB/c/d|edc AGE:|
[2 ~A3 dAd|e2d cAG|~A3 dAd|efg fed||

